!! 00000] TT[WS
!!!OTL: Pa puoyi
!!!ARE: Asia, China,ÿShanxi Lingxian
!! Ethnic Group: Han
!! WI, 222 (1)
!!!SCT: J0265
!!!YEM: Copyright 1995, estate of Helmut Schaffrath.
**kern
*ICvox
*Ivox
*M6/8
*k[f#]
*G:
{8dd
8ee
8dd
8cc
8cc
8dd
=1
8ee
8dd
8b
4.a}
=2
{8dd
8dd
8gg
8ee
8cc
8dd
=3
8ee
8dd
8b
4.a}
=4
{8a
8dd
8dd
8gg
8ee
8dd
=5
8dd
8b
8a
4.g}
=6
{8b
8a
8g
8d
8g
8b
=7
8a
8a
8e
4.d}
==
!!!AGN: Xiaodiao. Qingge
!!!ONB: ESAC (Essen Associative Code) Database: CHINA
!!!AMT: compound duple
!!!AIN: vox
!!!EED: Helmut Schaffrath
!!!EEV: 1.0
*-
